X:99
T:Margaret Macdonald
T:Mairearad Nighean D\`omhnuill
R:Slow Air
S:Simon Fraser Collection
N:No.114
O:Scottish
M:C
L:1/8
Q:1/4=100
K:G
B/^d/|e>f g>f eEE>F|G>F Gef>^d e>d B<=d|A>G F<B E3:|
F|G>AB>^c d>=cBc|B>AG>A B2 zf|g>ef>^d e>d B<=d|A>G F<B E2 zF|
G>AB>^c d<=cBc|B>AG>A B2 zA|B>b g>f e^dB=d|A>GEB E3||
